flags/it-62.svg

<svg width="512" height="512" viewBox="0 0 512 512" fill="none" xmlns="http://www.w3.org/2000/svg">
<rect width="512" height="512" fill="var(--flag-palette-light-blue, #338af3)"/>
<path d="M310.9 146.9H209.1L226.1 163.8L265.7 169.5L293.9 163.8L310.9 146.9Z" fill="var(--flag-palette-green, #6da544)"/>
<path d="M203.399 141.2L378.799 316.6L316.599 378.8L141.199 203.4L203.399 141.2Z" fill="var(--flag-palette-dark-yellow, #ffc635)"/>
<path d="M316.599 141.2L378.799 203.4L203.399 378.8L141.199 316.6L316.599 141.2Z" fill="var(--flag-palette-dark-yellow, #ffc635)"/>
<path d="M260 209L311 260L260 311L209 260L260 209Z" fill="var(--flag-palette-bright-red, #d80027)"/>
<path d="M316.6 367.5L282.6 333.5L304 304.2L333.5 282.6L367.5 316.6L316.6 367.5Z" fill="var(--flag-palette-light-blue, #338af3)"/>
<path d="M203.4 265.7L254.3 316.6L203.3 367.5L152.5 316.5L203.4 265.7Z" fill="var(--flag-palette-bright-red, #d80027)"/>
<path d="M203.4 152.5L254.4 203.4L203.4 254.3L152.5 203.3L203.4 152.5ZM310.9 260L260 209.1V310.9L310.9 260Z" fill="var(--flag-palette-light-blue, #338af3)"/>
<path d="M316.6 265.7L333.6 282.7L282.6 333.5L265.6 316.5L316.6 265.7Z" fill="var(--flag-palette-bright-red, #d80027)"/>
<path d="M299.599 169.5L265.699 203.4L299.599 237.4L310.899 203.4L299.599 169.5Z" fill="var(--flag-palette-blue, #0052b4)"/>
<path d="M333.499 237.4L367.499 203.4L333.499 169.5L322.199 203.4L333.499 237.4Z" fill="var(--flag-palette-light-blue, #338af3)"/>
<path d="M316.6 152.5L299.6 169.5V237.4L316.6 254.3L333.5 237.4V169.5L316.6 152.5Z" fill="var(--flag-palette-green, #6da544)"/>
<path d="M203.4 141.2H316.5V149.2H203.4V141.2Z" fill="var(--flag-palette-dark-yellow, #ffc635)"/>
<path d="M293.9 163.8H226.1L243 180.8L260 186.5L277 180.8L293.9 163.8Z" fill="var(--flag-palette-white, #eeeeee)"/>
<path d="M260 197.8L277 180.8H243L260 197.8Z" fill="var(--flag-palette-bright-red, #d80027)"/>
<path d="M373.1 310.9V209.1L356.2 226.1L350.5 265.7L356.2 293.9L373.1 310.9Z" fill="var(--flag-palette-green, #6da544)"/>
<path d="M356.2 293.9V226.1L339.2 243L333.5 260L339.2 277L356.2 293.9Z" fill="var(--flag-palette-white, #eeeeee)"/>
<path d="M322.199 260L339.199 277V243L322.199 260Z" fill="var(--flag-palette-bright-red, #d80027)"/>
<path d="M209.1 373.1H310.9L293.9 356.2L254.3 350.5L226.1 356.2L209.1 373.1Z" fill="var(--flag-palette-green, #6da544)"/>
<path d="M226.1 356.2H293.9L277 339.2L260 333.5L243 339.2L226.1 356.2Z" fill="var(--flag-palette-white, #eeeeee)"/>
<path d="M260 322.2L243 339.2H277L260 322.2Z" fill="var(--flag-palette-bright-red, #d80027)"/>
<path d="M146.9 209.1V310.9L163.8 293.9L169.5 254.3L163.8 226.1L146.9 209.1Z" fill="var(--flag-palette-green, #6da544)"/>
<path d="M163.801 226.1V293.9L180.801 277L186.501 260L180.801 243L163.801 226.1Z" fill="var(--flag-palette-white, #eeeeee)"/>
<path d="M197.801 260L180.801 243V277L197.801 260Z" fill="var(--flag-palette-bright-red, #d80027)"/>
<path d="M203.399 370.8H316.499V378.8H203.399V370.8ZM370.799 316.6V203.5H378.799V316.5L370.799 316.6ZM141.199 316.6V203.6H149.199V316.6H141.199Z" fill="var(--flag-palette-dark-yellow, #ffc635)"/>
<path d="M202.9 189.4L230 216.5L216.4 230.1L189.3 202.9L202.9 189.4Z" fill="var(--flag-palette-dark-yellow, #ffc635)"/>
<path d="M196.1 205.7C201.402 205.7 205.7 201.402 205.7 196.1C205.7 190.798 201.402 186.5 196.1 186.5C190.798 186.5 186.5 190.798 186.5 196.1C186.5 201.402 190.798 205.7 196.1 205.7Z" fill="var(--flag-palette-dark-yellow, #ffc635)"/>
<path d="M340.6 332.1L342.7 332.8L351.9 323.6L351.2 321.6L339.9 310.2C342 308.1 342 305.2 339.9 303.2C338.5 301.7 334.9 301 332.9 303.2L321.5 314.4L319.4 315.2V312.3L330.7 301L328.6 298.9L317.3 310.2C316.383 311.135 315.87 312.392 315.87 313.7C315.87 315.009 316.383 316.266 317.3 317.2C318.7 318.7 322.3 319.4 324.3 317.2L335.7 306L337.7 305.3V308.1L325.1 320.8C324.487 321.433 323.742 321.923 322.919 322.235C322.096 322.547 321.214 322.675 320.335 322.608C319.457 322.541 318.605 322.282 317.838 321.848C317.071 321.415 316.41 320.818 315.9 320.1C314.542 319.082 312.86 318.591 311.168 318.72C309.476 318.849 307.888 319.588 306.7 320.8C305.767 322.021 305.262 323.514 305.262 325.05C305.262 326.586 305.767 328.08 306.7 329.3L310.2 332.8L315.2 337.8C315.711 338.501 316.368 339.083 317.125 339.506C317.883 339.929 318.723 340.182 319.588 340.249C320.453 340.315 321.322 340.193 322.136 339.892C322.949 339.59 323.687 339.115 324.3 338.5L325.8 339.9L323.6 342C323.054 342.519 322.633 343.155 322.367 343.859C322.102 344.564 321.999 345.319 322.066 346.069C322.134 346.819 322.369 347.544 322.756 348.19C323.143 348.836 323.67 349.387 324.3 349.8H325.8L334.2 341.3L335 339.2L329.3 333.5L340.6 320.8L342.7 322.9L340.7 325.1C339.783 326.035 339.27 327.292 339.27 328.6C339.27 329.909 339.783 331.166 340.7 332.1H340.6Z" fill="var(--flag-palette-dark-yellow, #ffc635)"/>
<path d="M284 248C284 250.122 283.157 252.157 281.657 253.657C280.157 255.157 278.122 256 276 256C276 258.122 275.157 260.157 273.657 261.657C272.157 263.157 270.122 264 268 264V272H264L268 280L260 288L252 280L256 272H252V264C249.878 264 247.843 263.157 246.343 261.657C244.843 260.157 244 258.122 244 256C241.878 256 239.843 255.157 238.343 253.657C236.843 252.157 236 250.122 236 248H252C252 245.878 252.843 243.843 254.343 242.343C255.843 240.843 257.878 240 260 240C262.122 240 264.157 240.843 265.657 242.343C267.157 243.843 268 245.878 268 248H284Z" fill="var(--flag-palette-white, #eeeeee)"/>
<path d="M360 64V112H168V64C172.243 64 176.313 65.6857 179.314 68.6863C182.314 71.6869 184 75.7565 184 80H200C200 75.7565 201.686 71.6869 204.686 68.6863C207.687 65.6857 211.757 64 216 64C220.243 64 224.313 65.6857 227.314 68.6863C230.314 71.6869 232 75.7565 232 80H248C248 75.7565 249.686 71.6869 252.686 68.6863C255.687 65.6857 259.757 64 264 64C268.243 64 272.313 65.6857 275.314 68.6863C278.314 71.6869 280 75.7565 280 80H296C296 75.7565 297.686 71.6869 300.686 68.6863C303.687 65.6857 307.757 64 312 64C316.243 64 320.313 65.6857 323.314 68.6863C326.314 71.6869 328 75.7565 328 80H344C344 75.7565 345.686 71.6869 348.686 68.6863C351.687 65.6857 355.757 64 360 64Z" fill="var(--flag-palette-dark-yellow, #ffc635)"/>
</svg>

<svg xmlns="http://www.w3.org/2000/svg" width="512" height="512" fill="none"><path fill="var(--flag-palette-light-blue, #338af3)" d="M0 0h512v512H0z"/><path fill="var(--flag-palette-green, #6da544)" d="M310.9 146.9H209.1l17 16.9 39.6 5.7 28.2-5.7z"/><path fill="var(--flag-palette-dark-yellow, #ffc635)" d="m203.4 141.2 175.4 175.4-62.2 62.2-175.4-175.4z"/><path fill="var(--flag-palette-dark-yellow, #ffc635)" d="m316.6 141.2 62.2 62.2-175.4 175.4-62.2-62.2z"/><path fill="var(--flag-palette-bright-red, #d80027)" d="m260 209 51 51-51 51-51-51z"/><path fill="var(--flag-palette-light-blue, #338af3)" d="m316.6 367.5-34-34 21.4-29.3 29.5-21.6 34 34z"/><path fill="var(--flag-palette-bright-red, #d80027)" d="m203.4 265.7 50.9 50.9-51 50.9-50.8-51z"/><path fill="var(--flag-palette-light-blue, #338af3)" d="m203.4 152.5 51 50.9-51 50.9-50.9-51zM310.9 260 260 209.1v101.8z"/><path fill="var(--flag-palette-bright-red, #d80027)" d="m316.6 265.7 17 17-51 50.8-17-17z"/><path fill="var(--flag-palette-blue, #0052b4)" d="m299.6 169.5-33.9 33.9 33.9 34 11.3-34z"/><path fill="var(--flag-palette-light-blue, #338af3)" d="m333.5 237.4 34-34-34-33.9-11.3 33.9z"/><path fill="var(--flag-palette-green, #6da544)" d="m316.6 152.5-17 17v67.9l17 16.9 16.9-16.9v-67.9z"/><path fill="var(--flag-palette-dark-yellow, #ffc635)" d="M203.4 141.2h113.1v8H203.4z"/><path fill="var(--flag-palette-white, #eeeeee)" d="M293.9 163.8h-67.8l16.9 17 17 5.7 17-5.7z"/><path fill="var(--flag-palette-bright-red, #d80027)" d="m260 197.8 17-17h-34z"/><path fill="var(--flag-palette-green, #6da544)" d="M373.1 310.9V209.1l-16.9 17-5.7 39.6 5.7 28.2z"/><path fill="var(--flag-palette-white, #eeeeee)" d="M356.2 293.9v-67.8l-17 16.9-5.7 17 5.7 17z"/><path fill="var(--flag-palette-bright-red, #d80027)" d="m322.2 260 17 17v-34z"/><path fill="var(--flag-palette-green, #6da544)" d="M209.1 373.1h101.8l-17-16.9-39.6-5.7-28.2 5.7z"/><path fill="var(--flag-palette-white, #eeeeee)" d="M226.1 356.2h67.8l-16.9-17-17-5.7-17 5.7z"/><path fill="var(--flag-palette-bright-red, #d80027)" d="m260 322.2-17 17h34z"/><path fill="var(--flag-palette-green, #6da544)" d="M146.9 209.1v101.8l16.9-17 5.7-39.6-5.7-28.2z"/><path fill="var(--flag-palette-white, #eeeeee)" d="M163.8 226.1v67.8l17-16.9 5.7-17-5.7-17z"/><path fill="var(--flag-palette-bright-red, #d80027)" d="m197.8 260-17-17v34z"/><path fill="var(--flag-palette-dark-yellow, #ffc635)" d="M203.4 370.8h113.1v8H203.4zm167.4-54.2V203.5h8v113zm-229.6 0v-113h8v113zm61.7-127.2 27.1 27.1-13.6 13.6-27.1-27.2z"/><path fill="var(--flag-palette-dark-yellow, #ffc635)" d="M196.1 205.7a9.6 9.6 0 1 0 0-19.2 9.6 9.6 0 0 0 0 19.2m144.5 126.4 2.1.7 9.2-9.2-.7-2-11.3-11.4c2.1-2.1 2.1-5 0-7-1.4-1.5-5-2.2-7 0l-11.4 11.2-2.1.8v-2.9l11.3-11.3-2.1-2.1-11.3 11.3a5 5 0 0 0 0 7c1.4 1.5 5 2.2 7 0l11.4-11.2 2-.7v2.8l-12.6 12.7a6 6 0 0 1-9.2-.7 7 7 0 0 0-9.2.7 7 7 0 0 0 0 8.5l3.5 3.5 5 5a6 6 0 0 0 9.1.7l1.5 1.4-2.2 2.1a5 5 0 0 0 .7 7.8h1.5l8.4-8.5.8-2.1-5.7-5.7 11.3-12.7 2.1 2.1-2 2.2a5 5 0 0 0 0 7z"/><path fill="var(--flag-palette-white, #eeeeee)" d="M284 248a8 8 0 0 1-8 8 8 8 0 0 1-8 8v8h-4l4 8-8 8-8-8 4-8h-4v-8a8 8 0 0 1-8-8 8 8 0 0 1-8-8h16a8 8 0 1 1 16 0z"/><path fill="var(--flag-palette-dark-yellow, #ffc635)" d="M360 64v48H168V64a16 16 0 0 1 16 16h16a16 16 0 0 1 32 0h16a16 16 0 0 1 32 0h16a16 16 0 0 1 32 0h16a16 16 0 0 1 16-16"/></svg>
